X:1
T:Estote fortes in bello - Victoria
T:#
%%score [ 1 2 3 4 ]
L:1/8
Q:1/4=200
M:none
K:F
V:1 treble nm="Soprano" snm="S"
V:2 treble nm="Alto" snm="A"
V:3 treble-8 nm="Tenor" snm="T"
V:4 bass nm="Bass" snm="B"
V:1
"^Estote fortes in bello""^Tomás Luis de Victoria\n(1548-1611)" z16 | z16 | z16 | z16 | B16 | %5
w: ||||E-|
[M:4/2] d16 | c8 d8- | d8 c8 | B16 | c16- | c8 G8- | G16 | z16 | d16 | (c16 | d16) | f16 | g16 | %18
w: sto-|te for\-|* tes|in|bel\-|* lo,|||et|pu\-||gna\-||
 f8 z8 | f16 | (f8 e8) | (d8 c8) | (e8 f8) | (e8 d8- | d4 ^c4 d4) (e4- | e2 d2 d8 ^c4) | d16- | %27
w: te|cum|an\- *|ti\- *|quo *|ser\- *|* * * pen\-||te:|
 d16 | z16 | d16 | (c8 d8- | d4 c4) A8 | =B8 (c8 | d8) c8 | z16 | z16 | d16- | d16 | (B8 c8) | %39
w: ||et|ac\- *|* * ci-|pi- e\-|* tis|||re\-||gnum *|
 (B8 A8) | (G12 ^F4) ||[M:3/1][Q:1/4=400] G16 z8 | A24 | B24 | %44
w: ae\- *|ter\- *|num.|Al-|le-|
[M:3/1][Q:1/4=400][Q:1/4=400][Q:1/4=400][Q:1/4=400] A24 | G16[Q:1/4=396] z8 |[Q:1/4=384] d24 | %47
w: lu-|ia,|al-|
[Q:1/4=365] _e24 |[Q:1/4=348] d24 |[Q:1/4=340] !fermata!d24 |] %50
w: le-|lu-|ia.|
V:2
 z8 D8- | D8 F8 | E4 F4 D4 E4 | (F4 E2 D2 E4 ^F4 | G4) D4 z4 G4 |[M:4/2] B8 F8 | A8 F4 D4- | %7
w: E\-|* sto-|te for- tes in|bel\- * * * *|* lo, e-|sto- te|for- tes in|
 D4 (G8 ^F4) | G8 z4 =F4 | A4 G4 A8 | G8 z4 D4 | _E8 D4 G4 | (F6 G2 A8- | A8) G8 | z4 F4 A4 c4 | %15
w: * bel\- *|lo, es-|to- te for-|tes in|bel- lo, in|bel\- * *|* lo,|et pu- gna-|
 B4 A8 G4 | F8 D4 F4 | (_E4 D8 C4) | D4 F8 E4 | D8 C4 B,4 | (C4 D8 ^C4) | D4 F4 G4 A4 | %22
w: te cum an-|ti- quo ser-|pen\- * *|te, cum an-|ti- quo ser-|pen\- * *|te, et pu- gna-|
 G4 c4 B4 (A4- | A2 GF E4 F4) G4 | A8 B8 | A16 | A8 z4 B4- | B4 A4 B4 F4 | (G6 A2 B2 A2 G2 F2 | %29
w: te cum an- ti\-||quo ser-|pen-|te: et|* ac- ci- pi-|e\- * * * * *|
 G4 A4) D8 | z4 G8 ^F4 | G4 C4 D8 | G,8 C8 | G,4 G8 ^F4 | G4 D4 (E4 F4) | D8 z4 A4 | F8 G4 (A4- | %37
w: * * tis,|et ac-|ci- pi- e-|tis re-|gnum, et ac-|ci- pi- e\- *|tis re-|gnum ae- ter\-|
 A2 G2 G8 ^F4) | G4 B4 G4 A4 | (B4 G8 ^F4) | (G4 C4 D8) ||[M:3/1] D16 z8 | F8 E8 ^F8 | %43
w: |num re- gnum ae-|ter\- * *||num.|Al- le- lu-|
 G8 (G,4 A,4 B,4 C4) |[M:3/1] D8 A,8 D8 | D16 z8 | B8 A8 =B8 | c8 G16 | _B8 A16 | !fermata!=B24 |] %50
w: ia, al\- * * *|* le- lu-|ia,|al- le- lu-|ia, al-|le- lu-|ia.|
V:3
 G16 | B8 A4 B4 | G4 A4 (B4 A2 G2 | A6 B2 c4 d4) | (G2 A2 B2 c2 d8) | %5
w: E-|sto- te for-|tes in bel\- * *||lo, * * * *|
[M:4/2][K:treble-8] z4 d8 f4- | f4 e4 d4 G4 | B8 c8 | d8 z4 d4 | f4 e4 f8 | e4 c4 (_e4 d4- | %11
w: e- sto\-|* te for- tes|in bel-|lo, es-|to- te for-|tes in bel\- *|
 d2 c2 c8 B2 A2 | B2 c2 d2 e2 ^f4 g4- | g4 ^f4) g4 d4 | e4 (f8 e4 | d6 c2 B8) | A4 d8 c4 | %17
w: ||* * lo, et|pu- gna\- *||te cum an-|
 B8 G4 G4 | B8 A8 | z4 f6 e2 d4 | A4 a4 a8 | a8 z4 f4 | e8 d8 | A4 a8 g4 | f4 e4 g8 | %25
w: ti- quo ser-|pen- te,|cum an- ti-|quo ser- pen-|te, et|pu- gna-|te cum an-|ti- quo ser-|
 (f4 e2 d2 e8) | d8 g8- | g4 ^f4 g4 d4 | _e8 d4 B4- | B4 A4 B4 F4 | (G6 A2 B4 A4) | G4 g8 ^f4 | %32
w: pen\- * * *|te: et|* ac- ci- pi-|e- tis, et|* ac- ci- pi-|e\- * * *|tis, et ac-|
 g4 d4 _e8 | d8 z8 | z8 a8 | f4 g4 (a2 g2 f2 e2 | d6 c2 B4 A4 | B8) A8 | G4 g8 f4 | d4 (_e8 d2 c2 | %40
w: ci- pi- e-|tis|re-|gnum ae- ter\- * * *||* num,|num, re- gnum|ae- ter\- * *|
 B4 A2 G2 A8) ||[M:3/1] G16 z8 | d8 ^c8 d8 | (G4 A4 B4 c4 d8) |[M:3/1][K:treble-8] =f8 e8 ^f8 | %45
w: |num.|Al- le- lu-|ia, * * * *|al- le- lu-|
 g8 (G4 A4 B4 c4 | d8) d8 d8 | c16 g8 | g16 ^f8 | !fermata!g24 |] %50
w: ia, al\- * * *|* le- lu-|ia, al-|le- lu-|ia.|
V:4
 z16 | z16 | z16 | z16 | z8 G,8- |[M:4/2] G,8 B,8 | A,8 B,8 | G,4 B,4 A,8 | G,4 G,4 B,8 | %9
w: ||||E\-|* sto-|te for-|tes in bel-|lo, e- sto-|
 F,4 C4 F,4 F,4 | (C12 =B,4 | C8) G,4 G,4 | (D12 C4 | D8) G,8 | z16 | z8 z4 G,4 | A,4 (B,8 A,4 | %17
w: te for- tes in|bel\- *|* lo, in|bel\- *|* lo,||et|pu- gna\- *|
 G,6 F,2 _E,8) | D,4 D8 C4 | B,8 A,4 B,4 | (F,6 G,2 A,8) | D,4 D4 E4 F4 | C8 z4 D4- | D4 C4 B,8 | %24
w: |te cum an-|ti- quo ser-|pen\- * *|te, et pug- na-|te cum|* an- ti-|
 A,8 G,8 | A,16 | D,8 z8 | z16 | z8 G,8- | G,4 ^F,4 G,4 D,4 | _E,8 D,8 | z16 | z8 z4 C4- | %33
w: quo ser-|pen-|te:||et|* ac- ci- pi-|e- tis,||et|
 C4 =B,4 C4 A,4 | B,8 A,4 D4- | D4 B,4 C4 (D4- | D2 C2 B,2 A,2 G,4 ^F,4 | G,8) D,8 | %38
w: * ac- ci- pi-|e- tis re\-|* gnum ae- ter\-||* num,|
 z4 G,4 E,4 F,4 | (G,2 F,2 _E,2 D,2 C,4 D,4) | (_E,8 D,8) ||[M:3/1] G,16 z8 | z16 x8 | z16 x8 | %44
w: re- gnum ae-|ter\- * * * * *||num.|||
[M:3/1] D8 ^C8 D8 | (G,4 A,4 B,4 C4 D8) | G,8 ^F,8 G,8 | C,8 C16 | G,8 D16 | !fermata!G,24 |] %50
w: Al- le- lu-|ia, * * * *|al- le- lu-|ia, al-|le- lu-|ia.|

